src/img/CoursesButton.svg

<svg width="167" height="36" viewBox="0 0 167 36" fill="none" xmlns="http://www.w3.org/2000/svg">
<path d="M157 0H10C4.47715 0 0 4.47715 0 10V26C0 31.5228 4.47715 36 10 36H157C162.523 36 167 31.5228 167 26V10C167 4.47715 162.523 0 157 0Z" fill="#7A11FF"/>
<path d="M27.25 12.0846L22.426 24.0006H20.878L16.054 12.0846H17.53L21.652 22.4706L25.774 12.0846H27.25ZM28.4727 15.0006H29.8227V24.0006H28.4727V15.0006ZM29.8767 11.7246V13.4886H28.4187V11.7246H29.8767ZM36.1781 22.9206C37.3901 22.9206 38.2601 22.4166 38.7881 21.4086H40.2641C39.9521 22.2246 39.4541 22.8846 38.7701 23.3886C38.0981 23.8926 37.2281 24.1446 36.1601 24.1446C34.8041 24.1446 33.7001 23.6946 32.8481 22.7946C32.0201 21.9186 31.6061 20.8206 31.6061 19.5006C31.6061 18.1686 32.0021 17.0706 32.7941 16.2066C33.6341 15.3066 34.7261 14.8566 36.0701 14.8566C37.4141 14.8566 38.5061 15.3066 39.3461 16.2066C40.1381 17.0706 40.5341 18.1686 40.5341 19.5006V20.0406H32.9921C33.0881 20.8686 33.4181 21.5526 33.9821 22.0926C34.5581 22.6446 35.2901 22.9206 36.1781 22.9206ZM36.0701 16.0806C35.2421 16.0806 34.5461 16.3386 33.9821 16.8546C33.4541 17.3466 33.1301 17.9886 33.0101 18.7806H39.1301C39.0101 17.9886 38.6861 17.3466 38.1581 16.8546C37.5941 16.3386 36.8981 16.0806 36.0701 16.0806ZM47.7997 16.8186L45.5497 24.0006H44.0017L41.1757 15.0006H42.6157L44.7757 22.3266L47.0617 15.0006H48.5377L50.8237 22.3266L52.9837 15.0006H54.4237L51.5977 24.0006H50.0497L47.7997 16.8186ZM65.184 22.8306C66.036 22.8306 66.78 22.6146 67.416 22.1826C68.064 21.7506 68.544 21.1686 68.856 20.4366H70.278C69.882 21.5646 69.228 22.4526 68.316 23.1006C67.344 23.7966 66.198 24.1446 64.878 24.1446C63.138 24.1446 61.728 23.5506 60.648 22.3626C59.628 21.2226 59.118 19.7826 59.118 18.0426C59.118 16.3026 59.628 14.8626 60.648 13.7226C61.728 12.5346 63.138 11.9406 64.878 11.9406C66.198 11.9406 67.344 12.2886 68.316 12.9846C69.228 13.6326 69.882 14.5206 70.278 15.6486H68.856C68.544 14.9166 68.064 14.3346 67.416 13.9026C66.78 13.4706 66.036 13.2546 65.184 13.2546C64.332 13.2546 63.624 13.3806 63.06 13.6326C62.496 13.8726 62.022 14.2086 61.638 14.6406C60.858 15.5166 60.468 16.6506 60.468 18.0426C60.468 19.4346 60.858 20.5686 61.638 21.4446C62.454 22.3686 63.636 22.8306 65.184 22.8306ZM75.9198 14.8566C77.2638 14.8566 78.3558 15.3066 79.1958 16.2066C79.9878 17.0706 80.3838 18.1686 80.3838 19.5006C80.3838 20.8326 79.9878 21.9306 79.1958 22.7946C78.3558 23.6946 77.2638 24.1446 75.9198 24.1446C74.5758 24.1446 73.4838 23.6946 72.6438 22.7946C71.8518 21.9306 71.4558 20.8326 71.4558 19.5006C71.4558 18.1686 71.8518 17.0706 72.6438 16.2066C73.4838 15.3066 74.5758 14.8566 75.9198 14.8566ZM75.9198 22.9206C76.8918 22.9206 77.6598 22.5846 78.2238 21.9126C78.7638 21.2766 79.0338 20.4726 79.0338 19.5006C79.0338 18.5286 78.7638 17.7246 78.2238 17.0886C77.6598 16.4166 76.8918 16.0806 75.9198 16.0806C74.9478 16.0806 74.1798 16.4166 73.6158 17.0886C73.0758 17.7246 72.8058 18.5286 72.8058 19.5006C72.8058 20.4726 73.0758 21.2766 73.6158 21.9126C74.1798 22.5846 74.9478 22.9206 75.9198 22.9206ZM88.6719 24.0006V22.5966C88.3479 23.0286 87.9519 23.3946 87.4839 23.6946C87.0159 23.9946 86.4819 24.1446 85.8819 24.1446C85.2819 24.1446 84.7659 24.0606 84.3339 23.8926C83.9019 23.7246 83.5239 23.4726 83.1999 23.1366C82.4559 22.4046 82.0839 21.4386 82.0839 20.2386V15.0006H83.4339V20.2026C83.4339 21.0306 83.6679 21.6906 84.1359 22.1826C84.6039 22.6746 85.2099 22.9206 85.9539 22.9206C86.7099 22.9206 87.3519 22.6686 87.8799 22.1646C88.4079 21.6486 88.6719 20.9886 88.6719 20.1846V15.0006H90.0219V24.0006H88.6719ZM97.1212 14.8566V16.2066H96.9592C95.9872 16.2066 95.1952 16.5966 94.5832 17.3766C94.0072 18.1206 93.7192 19.0086 93.7192 20.0406V24.0006H92.3692V15.0006H93.7192V17.2146C94.0072 16.2786 94.6312 15.5886 95.5912 15.1446C95.9872 14.9526 96.4672 14.8566 97.0312 14.8566H97.1212ZM103.866 17.4126C103.746 16.4766 102.99 16.0086 101.598 16.0086C100.218 16.0086 99.5283 16.4406 99.5283 17.3046C99.5283 17.6646 99.6723 17.9406 99.9603 18.1326C100.26 18.3126 100.632 18.4626 101.076 18.5826C101.52 18.7026 102 18.8166 102.516 18.9246C103.044 19.0206 103.53 19.1646 103.974 19.3566C104.418 19.5366 104.784 19.7886 105.072 20.1126C105.372 20.4366 105.522 20.8806 105.522 21.4446C105.522 22.3206 105.192 22.9926 104.532 23.4606C103.872 23.9166 102.978 24.1446 101.85 24.1446C100.65 24.1446 99.6963 23.8446 98.9883 23.2446C98.3403 22.7166 97.9923 22.0266 97.9443 21.1746H99.3483C99.4323 22.0026 99.9003 22.5606 100.752 22.8486C101.064 22.9446 101.37 22.9926 101.67 22.9926C101.982 22.9926 102.27 22.9746 102.534 22.9386C102.798 22.9026 103.056 22.8366 103.308 22.7406C103.884 22.5126 104.172 22.1226 104.172 21.5706C104.172 21.1986 104.022 20.9166 103.722 20.7246C103.434 20.5206 103.068 20.3586 102.624 20.2386C102.18 20.1066 101.694 19.9926 101.166 19.8966C100.65 19.7886 100.17 19.6446 99.7263 19.4646C99.2823 19.2846 98.9103 19.0386 98.6103 18.7266C98.3223 18.4146 98.1783 17.9826 98.1783 17.4306C98.1783 16.6146 98.4723 15.9846 99.0603 15.5406C99.6603 15.0846 100.542 14.8566 101.706 14.8566C102.81 14.8566 103.68 15.1206 104.316 15.6486C104.844 16.0926 105.15 16.6806 105.234 17.4126H103.866ZM111.272 22.9206C112.484 22.9206 113.354 22.4166 113.882 21.4086H115.358C115.046 22.2246 114.548 22.8846 113.864 23.3886C113.192 23.8926 112.322 24.1446 111.254 24.1446C109.898 24.1446 108.794 23.6946 107.942 22.7946C107.114 21.9186 106.7 20.8206 106.7 19.5006C106.7 18.1686 107.096 17.0706 107.888 16.2066C108.728 15.3066 109.82 14.8566 111.164 14.8566C112.508 14.8566 113.6 15.3066 114.44 16.2066C115.232 17.0706 115.628 18.1686 115.628 19.5006V20.0406H108.086C108.182 20.8686 108.512 21.5526 109.076 22.0926C109.652 22.6446 110.384 22.9206 111.272 22.9206ZM111.164 16.0806C110.336 16.0806 109.64 16.3386 109.076 16.8546C108.548 17.3466 108.224 17.9886 108.104 18.7806H114.224C114.104 17.9886 113.78 17.3466 113.252 16.8546C112.688 16.3386 111.992 16.0806 111.164 16.0806ZM122.569 17.4126C122.449 16.4766 121.693 16.0086 120.301 16.0086C118.921 16.0086 118.231 16.4406 118.231 17.3046C118.231 17.6646 118.375 17.9406 118.663 18.1326C118.963 18.3126 119.335 18.4626 119.779 18.5826C120.223 18.7026 120.703 18.8166 121.219 18.9246C121.747 19.0206 122.233 19.1646 122.677 19.3566C123.121 19.5366 123.487 19.7886 123.775 20.1126C124.075 20.4366 124.225 20.8806 124.225 21.4446C124.225 22.3206 123.895 22.9926 123.235 23.4606C122.575 23.9166 121.681 24.1446 120.553 24.1446C119.353 24.1446 118.399 23.8446 117.691 23.2446C117.043 22.7166 116.695 22.0266 116.647 21.1746H118.051C118.135 22.0026 118.603 22.5606 119.455 22.8486C119.767 22.9446 120.073 22.9926 120.373 22.9926C120.685 22.9926 120.973 22.9746 121.237 22.9386C121.501 22.9026 121.759 22.8366 122.011 22.7406C122.587 22.5126 122.875 22.1226 122.875 21.5706C122.875 21.1986 122.725 20.9166 122.425 20.7246C122.137 20.5206 121.771 20.3586 121.327 20.2386C120.883 20.1066 120.397 19.9926 119.869 19.8966C119.353 19.7886 118.873 19.6446 118.429 19.4646C117.985 19.2846 117.613 19.0386 117.313 18.7266C117.025 18.4146 116.881 17.9826 116.881 17.4306C116.881 16.6146 117.175 15.9846 117.763 15.5406C118.363 15.0846 119.245 14.8566 120.409 14.8566C121.513 14.8566 122.383 15.1206 123.019 15.6486C123.547 16.0926 123.853 16.6806 123.937 17.4126H122.569Z" fill="white"/>
<path d="M150.741 18.4936C150.821 18.4385 150.886 18.3649 150.931 18.279C150.976 18.1931 151 18.0974 151 18.0004C151 17.9033 150.976 17.8077 150.931 17.7218C150.886 17.6359 150.821 17.5622 150.741 17.5072L142.941 12.1072C142.851 12.0447 142.746 12.008 142.637 12.0012C142.527 11.9944 142.418 12.0177 142.321 12.0685C142.224 12.1193 142.143 12.1958 142.086 12.2896C142.03 12.3833 142 12.4908 142 12.6004V23.4004C142 23.5097 142.031 23.6168 142.087 23.7102C142.144 23.8036 142.225 23.8797 142.322 23.9304C142.419 23.9812 142.528 24.0045 142.637 23.998C142.746 23.9915 142.851 23.9554 142.941 23.8936L150.741 18.4936Z" fill="white"/>
</svg>

<svg fill="none" height="36" viewBox="0 0 167 36" width="167" xmlns="http://www.w3.org/2000/svg"><path d="m157 0h-147c-5.52285 0-10 4.47715-10 10v16c0 5.5228 4.47715 10 10 10h147c5.523 0 10-4.4772 10-10v-16c0-5.52285-4.477-10-10-10z" fill="#7a11ff"/><g fill="#fff"><path d="m27.25 12.0846-4.824 11.916h-1.548l-4.824-11.916h1.476l4.122 10.386 4.122-10.386zm1.2227 2.916h1.35v9h-1.35zm1.404-3.276v1.764h-1.458v-1.764zm6.3014 11.196c1.212 0 2.082-.504 2.61-1.512h1.476c-.312.816-.81 1.476-1.494 1.98-.672.504-1.542.756-2.61.756-1.356 0-2.46-.45-3.312-1.35-.828-.876-1.242-1.974-1.242-3.294 0-1.332.396-2.43 1.188-3.294.84-.9 1.932-1.35 3.276-1.35s2.436.45 3.276 1.35c.792.864 1.188 1.962 1.188 3.294v.54h-7.542c.096.828.426 1.512.99 2.052.576.552 1.308.828 2.196.828zm-.108-6.84c-.828 0-1.524.258-2.088.774-.528.492-.852 1.134-.972 1.926h6.12c-.12-.792-.444-1.434-.972-1.926-.564-.516-1.26-.774-2.088-.774zm11.7296.738-2.25 7.182h-1.548l-2.826-9h1.44l2.16 7.326 2.286-7.326h1.476l2.286 7.326 2.16-7.326h1.44l-2.826 9h-1.548zm17.3843 6.012c.852 0 1.596-.216 2.232-.648.648-.432 1.128-1.014 1.44-1.746h1.422c-.396 1.128-1.05 2.016-1.962 2.664-.972.696-2.118 1.044-3.438 1.044-1.74 0-3.15-.594-4.23-1.782-1.02-1.14-1.53-2.58-1.53-4.32s.51-3.18 1.53-4.32c1.08-1.188 2.49-1.782 4.23-1.782 1.32 0 2.466.348 3.438 1.044.912.648 1.566 1.536 1.962 2.664h-1.422c-.312-.732-.792-1.314-1.44-1.746-.636-.432-1.38-.648-2.232-.648s-1.56.126-2.124.378c-.564.24-1.038.576-1.422 1.008-.78.876-1.17 2.01-1.17 3.402s.39 2.526 1.17 3.402c.816.924 1.998 1.386 3.546 1.386zm10.7358-7.974c1.344 0 2.436.45 3.276 1.35.792.864 1.188 1.962 1.188 3.294s-.396 2.43-1.188 3.294c-.84.9-1.932 1.35-3.276 1.35s-2.436-.45-3.276-1.35c-.792-.864-1.188-1.962-1.188-3.294s.396-2.43 1.188-3.294c.84-.9 1.932-1.35 3.276-1.35zm0 8.064c.972 0 1.74-.336 2.304-1.008.54-.636.81-1.44.81-2.412s-.27-1.776-.81-2.412c-.564-.672-1.332-1.008-2.304-1.008s-1.74.336-2.304 1.008c-.54.636-.81 1.44-.81 2.412s.27 1.776.81 2.412c.564.672 1.332 1.008 2.304 1.008zm12.7521 1.08v-1.404c-.324.432-.72.798-1.188 1.098s-1.002.45-1.602.45-1.116-.084-1.548-.252-.81-.42-1.134-.756c-.744-.732-1.116-1.698-1.116-2.898v-5.238h1.35v5.202c0 .828.234 1.488.702 1.98s1.074.738 1.818.738c.756 0 1.398-.252 1.926-.756.528-.516.792-1.176.792-1.98v-5.184h1.35v9zm8.4493-9.144v1.35h-.162c-.972 0-1.764.39-2.376 1.17-.576.744-.864 1.632-.864 2.664v3.96h-1.35v-9h1.35v2.214c.288-.936.912-1.626 1.872-2.07.396-.192.876-.288 1.44-.288zm6.7448 2.556c-.12-.936-.876-1.404-2.268-1.404-1.38 0-2.0697.432-2.0697 1.296 0 .36.144.636.432.828.2997.18.6717.33 1.1157.45s.924.234 1.44.342c.528.096 1.014.24 1.458.432.444.18.81.432 1.098.756.3.324.45.768.45 1.332 0 .876-.33 1.548-.99 2.016-.66.456-1.554.684-2.682.684-1.2 0-2.1537-.3-2.8617-.9-.648-.528-.996-1.218-1.044-2.07h1.404c.084.828.552 1.386 1.4037 1.674.312.096.618.144.918.144.312 0 .6-.018.864-.054s.522-.102.774-.198c.576-.228.864-.618.864-1.17 0-.372-.15-.654-.45-.846-.288-.204-.654-.366-1.098-.486-.444-.132-.93-.246-1.458-.342-.516-.108-.996-.252-1.4397-.432-.444-.18-.816-.426-1.116-.738-.288-.312-.432-.744-.432-1.296 0-.816.294-1.446.882-1.89.6-.456 1.4817-.684 2.6457-.684 1.104 0 1.974.264 2.61.792.528.444.834 1.032.918 1.764zm7.406 5.508c1.212 0 2.082-.504 2.61-1.512h1.476c-.312.816-.81 1.476-1.494 1.98-.672.504-1.542.756-2.61.756-1.356 0-2.46-.45-3.312-1.35-.828-.876-1.242-1.974-1.242-3.294 0-1.332.396-2.43 1.188-3.294.84-.9 1.932-1.35 3.276-1.35s2.436.45 3.276 1.35c.792.864 1.188 1.962 1.188 3.294v.54h-7.542c.096.828.426 1.512.99 2.052.576.552 1.308.828 2.196.828zm-.108-6.84c-.828 0-1.524.258-2.088.774-.528.492-.852 1.134-.972 1.926h6.12c-.12-.792-.444-1.434-.972-1.926-.564-.516-1.26-.774-2.088-.774zm11.405 1.332c-.12-.936-.876-1.404-2.268-1.404-1.38 0-2.07.432-2.07 1.296 0 .36.144.636.432.828.3.18.672.33 1.116.45s.924.234 1.44.342c.528.096 1.014.24 1.458.432.444.18.81.432 1.098.756.3.324.45.768.45 1.332 0 .876-.33 1.548-.99 2.016-.66.456-1.554.684-2.682.684-1.2 0-2.154-.3-2.862-.9-.648-.528-.996-1.218-1.044-2.07h1.404c.084.828.552 1.386 1.404 1.674.312.096.618.144.918.144.312 0 .6-.018.864-.054s.522-.102.774-.198c.576-.228.864-.618.864-1.17 0-.372-.15-.654-.45-.846-.288-.204-.654-.366-1.098-.486-.444-.132-.93-.246-1.458-.342-.516-.108-.996-.252-1.44-.432s-.816-.426-1.116-.738c-.288-.312-.432-.744-.432-1.296 0-.816.294-1.446.882-1.89.6-.456 1.482-.684 2.646-.684 1.104 0 1.974.264 2.61.792.528.444.834 1.032.918 1.764z"/><path d="m150.741 18.4936c.08-.0551.145-.1287.19-.2146s.069-.1816.069-.2786c0-.0971-.024-.1927-.069-.2786s-.11-.1596-.19-.2146l-7.8-5.4c-.09-.0625-.195-.0992-.304-.106-.11-.0068-.219.0165-.316.0673s-.178.1273-.235.2211c-.056.0937-.086.2012-.086.3108v10.8c0 .1093.031.2164.087.3098.057.0934.138.1695.235.2202.097.0508.206.0741.315.0676s.214-.0426.304-.1044z"/></g></svg>
